X: 23
T:Harom Krumpli A Tuzbe
S:Csenki & Paszti: Baszarozsa - 99 Cigany Nepdal, 1955
M:2/4
L:1/8
Q:1/4=144
K:C
cc cc|cc  c2|ed cB|AB G2 |
dd dd|c B2 A|G2 G2|G2 z2 |
FF FF|FG  F2|ED DD|DE C2 |
GG GG|GF  ED|C2 C2|C2 z2|]

and a tune now played all over the British Isles but originally from
Elizabethan England (one of the few tunes in the folk repertoire
where the major seventh is an essential note at the bottom of the
range).

